img/five_stars.svg

<svg width="280" height="92" viewBox="0 0 280 92" fill="none" xmlns="http://www.w3.org/2000/svg">
<path d="M98.15 26.55C103.083 26.55 106.733 27.5167 109.1 29.45C111.467 31.35 112.65 33.95 112.65 37.25C112.65 39.35 112.133 41.25 111.1 42.95C110.067 44.65 108.517 46 106.45 47C104.383 48 101.833 48.5 98.8 48.5C96.3 48.5 93.8833 48.15 91.55 47.45C89.2167 46.7167 87.25 45.7167 85.65 44.45L88.4 39.4C89.7 40.4667 91.25 41.3167 93.05 41.95C94.8833 42.55 96.7667 42.85 98.7 42.85C101 42.85 102.8 42.3833 104.1 41.45C105.433 40.4833 106.1 39.1667 106.1 37.5C106.1 35.7 105.383 34.35 103.95 33.45C102.55 32.5167 100.133 32.05 96.7 32.05H88.25L90.05 13H110.6V18.45H95.55L94.8 26.55H98.15ZM148.168 34.1C149.834 34.5667 151.118 35.3333 152.018 36.4C152.951 37.4333 153.418 38.6833 153.418 40.15C153.418 41.7833 152.868 43.2333 151.768 44.5C150.668 45.7333 149.151 46.7 147.218 47.4C145.284 48.1 143.084 48.45 140.618 48.45C138.551 48.45 136.534 48.2167 134.568 47.75C132.601 47.25 130.818 46.55 129.218 45.65L131.018 41C132.318 41.7333 133.784 42.3 135.418 42.7C137.051 43.1 138.684 43.3 140.318 43.3C142.418 43.3 144.051 42.9833 145.218 42.35C146.418 41.6833 147.018 40.7833 147.018 39.65C147.018 38.6167 146.551 37.8167 145.618 37.25C144.718 36.6833 143.434 36.4 141.768 36.4H136.568V32.2H141.268C142.834 32.2 144.051 31.9333 144.918 31.4C145.818 30.8667 146.268 30.1167 146.268 29.15C146.268 28.1833 145.734 27.4167 144.668 26.85C143.601 26.2833 142.134 26 140.268 26C137.601 26 134.784 26.65 131.818 27.95L130.218 23.35C133.718 21.7167 137.251 20.9 140.818 20.9C143.084 20.9 145.118 21.2167 146.918 21.85C148.718 22.45 150.118 23.3167 151.118 24.45C152.151 25.55 152.668 26.8167 152.668 28.25C152.668 29.55 152.268 30.7167 151.468 31.75C150.668 32.75 149.568 33.5333 148.168 34.1ZM179.253 34.1C182.553 35.1 184.203 37.2333 184.203 40.5C184.203 42.9 183.303 44.75 181.503 46.05C179.703 47.35 177.036 48 173.503 48H159.903V21.3H172.953C176.22 21.3 178.77 21.9 180.603 23.1C182.436 24.3 183.353 26 183.353 28.2C183.353 29.5667 182.986 30.75 182.253 31.75C181.553 32.75 180.553 33.5333 179.253 34.1ZM165.853 32.45H172.403C175.636 32.45 177.253 31.3333 177.253 29.1C177.253 26.9333 175.636 25.85 172.403 25.85H165.853V32.45ZM173.003 43.45C176.436 43.45 178.153 42.3333 178.153 40.1C178.153 38.9333 177.753 38.0667 176.953 37.5C176.153 36.9 174.903 36.6 173.203 36.6H165.853V43.45H173.003ZM215.86 34.8C215.86 35.2333 215.827 35.85 215.76 36.65H194.81C195.177 38.6167 196.127 40.1833 197.66 41.35C199.227 42.4833 201.16 43.05 203.46 43.05C206.393 43.05 208.81 42.0833 210.71 40.15L214.06 44C212.86 45.4333 211.343 46.5167 209.51 47.25C207.677 47.9833 205.61 48.35 203.31 48.35C200.377 48.35 197.793 47.7667 195.56 46.6C193.327 45.4333 191.593 43.8167 190.36 41.75C189.16 39.65 188.56 37.2833 188.56 34.65C188.56 32.05 189.143 29.7167 190.31 27.65C191.51 25.55 193.16 23.9167 195.26 22.75C197.36 21.5833 199.727 21 202.36 21C204.96 21 207.277 21.5833 209.31 22.75C211.377 23.8833 212.977 25.5 214.11 27.6C215.277 29.6667 215.86 32.0667 215.86 34.8ZM202.36 26C200.36 26 198.66 26.6 197.26 27.8C195.893 28.9667 195.06 30.5333 194.76 32.5H209.91C209.643 30.5667 208.827 29 207.46 27.8C206.093 26.6 204.393 26 202.36 26ZM238.158 34.1C239.824 34.5667 241.108 35.3333 242.008 36.4C242.941 37.4333 243.408 38.6833 243.408 40.15C243.408 41.7833 242.858 43.2333 241.758 44.5C240.658 45.7333 239.141 46.7 237.208 47.4C235.274 48.1 233.074 48.45 230.608 48.45C228.541 48.45 226.524 48.2167 224.558 47.75C222.591 47.25 220.808 46.55 219.208 45.65L221.008 41C222.308 41.7333 223.774 42.3 225.408 42.7C227.041 43.1 228.674 43.3 230.308 43.3C232.408 43.3 234.041 42.9833 235.208 42.35C236.408 41.6833 237.008 40.7833 237.008 39.65C237.008 38.6167 236.541 37.8167 235.608 37.25C234.708 36.6833 233.424 36.4 231.758 36.4H226.558V32.2H231.258C232.824 32.2 234.041 31.9333 234.908 31.4C235.808 30.8667 236.258 30.1167 236.258 29.15C236.258 28.1833 235.724 27.4167 234.658 26.85C233.591 26.2833 232.124 26 230.258 26C227.591 26 224.774 26.65 221.808 27.95L220.208 23.35C223.708 21.7167 227.241 20.9 230.808 20.9C233.074 20.9 235.108 21.2167 236.908 21.85C238.708 22.45 240.108 23.3167 241.108 24.45C242.141 25.55 242.658 26.8167 242.658 28.25C242.658 29.55 242.258 30.7167 241.458 31.75C240.658 32.75 239.558 33.5333 238.158 34.1ZM278.393 42.7V53.95H272.543V48H251.943V53.95H246.143V42.7H247.393C249.093 42.6333 250.243 41.55 250.843 39.45C251.477 37.3167 251.893 34.3167 252.093 30.45L252.443 21.3H274.443V42.7H278.393ZM257.793 30.9C257.66 33.9667 257.41 36.4667 257.043 38.4C256.677 40.3333 256.01 41.7667 255.043 42.7H268.193V26.6H257.943L257.793 30.9Z" fill="white"/>
<path d="M61.9204 28.0536C61.8825 26.0557 61.8464 24.1683 61.8464 22.3424C61.8464 20.9119 60.6904 19.7522 59.2637 19.7522C48.2184 19.7522 39.8089 16.5687 32.7991 9.73341C31.7963 8.75536 30.2006 8.7557 29.1982 9.73341C22.1891 16.5687 13.7809 19.7522 2.73633 19.7522C1.31 19.7522 0.153644 20.9119 0.153644 22.3424C0.153644 24.1687 0.117831 26.0567 0.079607 28.055C-0.274393 46.6477 -0.759247 72.1112 30.1527 82.857C30.4268 82.9523 30.7126 83 30.9985 83C31.2843 83 31.5704 82.9523 31.8442 82.857C62.7586 72.1109 62.2744 46.6466 61.9204 28.0536ZM30.9988 77.6611C4.48773 68.0025 4.88856 46.8442 5.24429 28.1538C5.26564 27.032 5.2863 25.9448 5.30076 24.8791C15.6453 24.4412 23.9174 21.2974 30.9988 15.1106C38.0809 21.2974 46.3544 24.4415 56.6996 24.8791C56.7141 25.9445 56.7347 27.031 56.7561 28.152C57.1115 46.8431 57.5119 68.0022 30.9988 77.6611Z" fill="white"/>
<path d="M39.8925 37.0021L27.4271 49.5031L22.1078 44.1683C21.0992 43.1571 19.4639 43.1571 18.4556 44.1683C17.447 45.1802 17.447 46.82 18.4556 47.8315L25.601 54.9977C26.1052 55.5033 26.7663 55.7561 27.4271 55.7561C28.088 55.7561 28.7491 55.5033 29.2533 54.9977L43.5445 40.6654C44.5534 39.6538 44.5534 38.0137 43.5448 37.0025C42.5365 35.9909 40.9012 35.9906 39.8925 37.0021Z" fill="white"/>
<path d="M93.325 63.3C94.5917 63.3 95.7083 63.575 96.675 64.125C97.6417 64.6583 98.3917 65.4083 98.925 66.375C99.475 67.3417 99.75 68.45 99.75 69.7C99.75 70.9833 99.45 72.125 98.85 73.125C98.25 74.1083 97.4083 74.875 96.325 75.425C95.2417 75.975 94.0083 76.25 92.625 76.25C90.3083 76.25 88.5167 75.4833 87.25 73.95C85.9833 72.4167 85.35 70.2083 85.35 67.325C85.35 64.6417 85.925 62.5167 87.075 60.95C88.225 59.3833 89.9833 58.35 92.35 57.85L98.55 56.525L99 59.325L93.375 60.475C91.7583 60.8083 90.55 61.375 89.75 62.175C88.95 62.975 88.4833 64.1 88.35 65.55C88.95 64.8333 89.675 64.2833 90.525 63.9C91.375 63.5 92.3083 63.3 93.325 63.3ZM92.7 73.725C93.85 73.725 94.775 73.3583 95.475 72.625C96.1917 71.875 96.55 70.925 96.55 69.775C96.55 68.625 96.1917 67.7 95.475 67C94.775 66.3 93.85 65.95 92.7 65.95C91.5333 65.95 90.5917 66.3 89.875 67C89.1583 67.7 88.8 68.625 88.8 69.775C88.8 70.9417 89.1583 71.8917 89.875 72.625C90.6083 73.3583 91.55 73.725 92.7 73.725ZM115.275 69.4C115.275 69.6167 115.258 69.925 115.225 70.325H104.75C104.933 71.3083 105.408 72.0917 106.175 72.675C106.958 73.2417 107.925 73.525 109.075 73.525C110.541 73.525 111.75 73.0417 112.7 72.075L114.375 74C113.775 74.7167 113.016 75.2583 112.1 75.625C111.183 75.9917 110.15 76.175 109 76.175C107.533 76.175 106.241 75.8833 105.125 75.3C104.008 74.7167 103.141 73.9083 102.525 72.875C101.925 71.825 101.625 70.6417 101.625 69.325C101.625 68.025 101.916 66.8583 102.5 65.825C103.1 64.775 103.925 63.9583 104.975 63.375C106.025 62.7917 107.208 62.5 108.525 62.5C109.825 62.5 110.983 62.7917 112 63.375C113.033 63.9417 113.833 64.75 114.4 65.8C114.983 66.8333 115.275 68.0333 115.275 69.4ZM108.525 65C107.525 65 106.675 65.3 105.975 65.9C105.291 66.4833 104.875 67.2667 104.725 68.25H112.3C112.166 67.2833 111.758 66.5 111.075 65.9C110.391 65.3 109.541 65 108.525 65ZM126.424 69.05C127.257 69.2833 127.899 69.6667 128.349 70.2C128.815 70.7167 129.049 71.3417 129.049 72.075C129.049 72.8917 128.774 73.6167 128.224 74.25C127.674 74.8667 126.915 75.35 125.949 75.7C124.982 76.05 123.882 76.225 122.649 76.225C121.615 76.225 120.607 76.1083 119.624 75.875C118.64 75.625 117.749 75.275 116.949 74.825L117.849 72.5C118.499 72.8667 119.232 73.15 120.049 73.35C120.865 73.55 121.682 73.65 122.499 73.65C123.549 73.65 124.365 73.4917 124.949 73.175C125.549 72.8417 125.849 72.3917 125.849 71.825C125.849 71.3083 125.615 70.9083 125.149 70.625C124.699 70.3417 124.057 70.2 123.224 70.2H120.624V68.1H122.974C123.757 68.1 124.365 67.9667 124.799 67.7C125.249 67.4333 125.474 67.0583 125.474 66.575C125.474 66.0917 125.207 65.7083 124.674 65.425C124.14 65.1417 123.407 65 122.474 65C121.14 65 119.732 65.325 118.249 65.975L117.449 63.675C119.199 62.8583 120.965 62.45 122.749 62.45C123.882 62.45 124.899 62.6083 125.799 62.925C126.699 63.225 127.399 63.6583 127.899 64.225C128.415 64.775 128.674 65.4083 128.674 66.125C128.674 66.775 128.474 67.3583 128.074 67.875C127.674 68.375 127.124 68.7667 126.424 69.05ZM138.241 76.175C136.891 76.175 135.675 75.8833 134.591 75.3C133.508 74.7167 132.658 73.9083 132.041 72.875C131.441 71.825 131.141 70.6417 131.141 69.325C131.141 68.0083 131.441 66.8333 132.041 65.8C132.658 64.7667 133.508 63.9583 134.591 63.375C135.675 62.7917 136.891 62.5 138.241 62.5C139.608 62.5 140.833 62.7917 141.916 63.375C143 63.9583 143.841 64.7667 144.441 65.8C145.058 66.8333 145.366 68.0083 145.366 69.325C145.366 70.6417 145.058 71.825 144.441 72.875C143.841 73.9083 143 74.7167 141.916 75.3C140.833 75.8833 139.608 76.175 138.241 76.175ZM138.241 73.5C139.391 73.5 140.341 73.1167 141.091 72.35C141.841 71.5833 142.216 70.575 142.216 69.325C142.216 68.075 141.841 67.0667 141.091 66.3C140.341 65.5333 139.391 65.15 138.241 65.15C137.091 65.15 136.141 65.5333 135.391 66.3C134.658 67.0667 134.291 68.075 134.291 69.325C134.291 70.575 134.658 71.5833 135.391 72.35C136.141 73.1167 137.091 73.5 138.241 73.5ZM161.254 62.65V76H158.154V65.3H151.579V76H148.454V62.65H161.254ZM170.445 62.5C172.412 62.5 173.912 62.975 174.945 63.925C175.995 64.8583 176.52 66.275 176.52 68.175V76H173.57V74.375C173.187 74.9583 172.637 75.4083 171.92 75.725C171.22 76.025 170.37 76.175 169.37 76.175C168.37 76.175 167.495 76.0083 166.745 75.675C165.995 75.325 165.412 74.85 164.995 74.25C164.595 73.6333 164.395 72.9417 164.395 72.175C164.395 70.975 164.837 70.0167 165.72 69.3C166.62 68.5667 168.028 68.2 169.945 68.2H173.395V68C173.395 67.0667 173.112 66.35 172.545 65.85C171.995 65.35 171.17 65.1 170.07 65.1C169.32 65.1 168.578 65.2167 167.845 65.45C167.128 65.6833 166.52 66.0083 166.02 66.425L164.795 64.15C165.495 63.6167 166.337 63.2083 167.32 62.925C168.303 62.6417 169.345 62.5 170.445 62.5ZM170.02 73.9C170.803 73.9 171.495 73.725 172.095 73.375C172.712 73.0083 173.145 72.4917 173.395 71.825V70.275H170.17C168.37 70.275 167.47 70.8667 167.47 72.05C167.47 72.6167 167.695 73.0667 168.145 73.4C168.595 73.7333 169.22 73.9 170.02 73.9ZM186.462 76.175C185.079 76.175 183.837 75.8833 182.737 75.3C181.637 74.7167 180.779 73.9083 180.162 72.875C179.545 71.825 179.237 70.6417 179.237 69.325C179.237 68.0083 179.545 66.8333 180.162 65.8C180.779 64.7667 181.629 63.9583 182.712 63.375C183.812 62.7917 185.062 62.5 186.462 62.5C187.779 62.5 188.929 62.7667 189.912 63.3C190.912 63.8333 191.662 64.6 192.162 65.6L189.762 67C189.379 66.3833 188.895 65.925 188.312 65.625C187.745 65.3083 187.12 65.15 186.437 65.15C185.27 65.15 184.304 65.5333 183.537 66.3C182.77 67.05 182.387 68.0583 182.387 69.325C182.387 70.5917 182.762 71.6083 183.512 72.375C184.279 73.125 185.254 73.5 186.437 73.5C187.12 73.5 187.745 73.35 188.312 73.05C188.895 72.7333 189.379 72.2667 189.762 71.65L192.162 73.05C191.645 74.05 190.887 74.825 189.887 75.375C188.904 75.9083 187.762 76.175 186.462 76.175ZM194.913 62.65H198.038V68.075H204.763V62.65H207.888V76H204.763V70.725H198.038V76H194.913V62.65ZM218.027 76.175C216.677 76.175 215.46 75.8833 214.377 75.3C213.293 74.7167 212.443 73.9083 211.827 72.875C211.227 71.825 210.927 70.6417 210.927 69.325C210.927 68.0083 211.227 66.8333 211.827 65.8C212.443 64.7667 213.293 63.9583 214.377 63.375C215.46 62.7917 216.677 62.5 218.027 62.5C219.393 62.5 220.618 62.7917 221.702 63.375C222.785 63.9583 223.627 64.7667 224.227 65.8C224.843 66.8333 225.152 68.0083 225.152 69.325C225.152 70.6417 224.843 71.825 224.227 72.875C223.627 73.9083 222.785 74.7167 221.702 75.3C220.618 75.8833 219.393 76.175 218.027 76.175ZM218.027 73.5C219.177 73.5 220.127 73.1167 220.877 72.35C221.627 71.5833 222.002 70.575 222.002 69.325C222.002 68.075 221.627 67.0667 220.877 66.3C220.127 65.5333 219.177 65.15 218.027 65.15C216.877 65.15 215.927 65.5333 215.177 66.3C214.443 67.0667 214.077 68.075 214.077 69.325C214.077 70.575 214.443 71.5833 215.177 72.35C215.927 73.1167 216.877 73.5 218.027 73.5ZM234.314 76.175C232.93 76.175 231.689 75.8833 230.589 75.3C229.489 74.7167 228.63 73.9083 228.014 72.875C227.397 71.825 227.089 70.6417 227.089 69.325C227.089 68.0083 227.397 66.8333 228.014 65.8C228.63 64.7667 229.48 63.9583 230.564 63.375C231.664 62.7917 232.914 62.5 234.314 62.5C235.63 62.5 236.78 62.7667 237.764 63.3C238.764 63.8333 239.514 64.6 240.014 65.6L237.614 67C237.23 66.3833 236.747 65.925 236.164 65.625C235.597 65.3083 234.972 65.15 234.289 65.15C233.122 65.15 232.155 65.5333 231.389 66.3C230.622 67.05 230.239 68.0583 230.239 69.325C230.239 70.5917 230.614 71.6083 231.364 72.375C232.13 73.125 233.105 73.5 234.289 73.5C234.972 73.5 235.597 73.35 236.164 73.05C236.747 72.7333 237.23 72.2667 237.614 71.65L240.014 73.05C239.497 74.05 238.739 74.825 237.739 75.375C236.755 75.9083 235.614 76.175 234.314 76.175ZM253.218 65.3H248.543V76H245.418V65.3H240.718V62.65H253.218V65.3ZM255.485 62.65H258.61V71.45L265.985 62.65H268.835V76H265.71V67.2L258.36 76H255.485V62.65Z" fill="white"/>
</svg>

<svg width="280" height="92" fill="none" xmlns="http://www.w3.org/2000/svg"><path d="M98.15 26.55c4.933 0 8.583.967 10.95 2.9 2.367 1.9 3.55 4.5 3.55 7.8 0 2.1-.517 4-1.55 5.7-1.033 1.7-2.583 3.05-4.65 4.05s-4.617 1.5-7.65 1.5c-2.5 0-4.917-.35-7.25-1.05-2.333-.733-4.3-1.733-5.9-3l2.75-5.05c1.3 1.067 2.85 1.917 4.65 2.55 1.833.6 3.717.9 5.65.9 2.3 0 4.1-.467 5.4-1.4 1.333-.967 2-2.283 2-3.95 0-1.8-.717-3.15-2.15-4.05-1.4-.933-3.817-1.4-7.25-1.4h-8.45L90.05 13h20.55v5.45H95.55l-.75 8.1h3.35zm50.018 7.55c1.666.467 2.95 1.233 3.85 2.3.933 1.033 1.4 2.283 1.4 3.75 0 1.633-.55 3.083-1.65 4.35-1.1 1.233-2.617 2.2-4.55 2.9-1.934.7-4.134 1.05-6.6 1.05-2.067 0-4.084-.233-6.05-.7-1.967-.5-3.75-1.2-5.35-2.1l1.8-4.65c1.3.733 2.766 1.3 4.4 1.7 1.633.4 3.266.6 4.9.6 2.1 0 3.733-.317 4.9-.95 1.2-.667 1.8-1.567 1.8-2.7 0-1.033-.467-1.833-1.4-2.4-.9-.567-2.184-.85-3.85-.85h-5.2v-4.2h4.7c1.566 0 2.783-.267 3.65-.8.9-.533 1.35-1.283 1.35-2.25 0-.967-.534-1.733-1.6-2.3-1.067-.567-2.534-.85-4.4-.85-2.667 0-5.484.65-8.45 1.95l-1.6-4.6c3.5-1.633 7.033-2.45 10.6-2.45 2.266 0 4.3.317 6.1.95 1.8.6 3.2 1.467 4.2 2.6 1.033 1.1 1.55 2.367 1.55 3.8 0 1.3-.4 2.467-1.2 3.5-.8 1-1.9 1.783-3.3 2.35zm31.085 0c3.3 1 4.95 3.133 4.95 6.4 0 2.4-.9 4.25-2.7 5.55-1.8 1.3-4.467 1.95-8 1.95h-13.6V21.3h13.05c3.267 0 5.817.6 7.65 1.8 1.833 1.2 2.75 2.9 2.75 5.1 0 1.367-.367 2.55-1.1 3.55-.7 1-1.7 1.783-3 2.35zm-13.4-1.65h6.55c3.233 0 4.85-1.117 4.85-3.35 0-2.167-1.617-3.25-4.85-3.25h-6.55v6.6zm7.15 11c3.433 0 5.15-1.117 5.15-3.35 0-1.167-.4-2.033-1.2-2.6-.8-.6-2.05-.9-3.75-.9h-7.35v6.85h7.15zm42.857-8.65c0 .433-.033 1.05-.1 1.85h-20.95c.367 1.967 1.317 3.533 2.85 4.7 1.567 1.133 3.5 1.7 5.8 1.7 2.933 0 5.35-.967 7.25-2.9l3.35 3.85c-1.2 1.433-2.717 2.517-4.55 3.25-1.833.733-3.9 1.1-6.2 1.1-2.933 0-5.517-.583-7.75-1.75-2.233-1.167-3.967-2.783-5.2-4.85-1.2-2.1-1.8-4.467-1.8-7.1 0-2.6.583-4.933 1.75-7 1.2-2.1 2.85-3.733 4.95-4.9 2.1-1.167 4.467-1.75 7.1-1.75 2.6 0 4.917.583 6.95 1.75 2.067 1.133 3.667 2.75 4.8 4.85 1.167 2.067 1.75 4.467 1.75 7.2zm-13.5-8.8c-2 0-3.7.6-5.1 1.8-1.367 1.167-2.2 2.733-2.5 4.7h15.15c-.267-1.933-1.083-3.5-2.45-4.7-1.367-1.2-3.067-1.8-5.1-1.8zm35.798 8.1c1.666.467 2.95 1.233 3.85 2.3.933 1.033 1.4 2.283 1.4 3.75 0 1.633-.55 3.083-1.65 4.35-1.1 1.233-2.617 2.2-4.55 2.9-1.934.7-4.134 1.05-6.6 1.05-2.067 0-4.084-.233-6.05-.7-1.967-.5-3.75-1.2-5.35-2.1l1.8-4.65c1.3.733 2.766 1.3 4.4 1.7 1.633.4 3.266.6 4.9.6 2.1 0 3.733-.317 4.9-.95 1.2-.667 1.8-1.567 1.8-2.7 0-1.033-.467-1.833-1.4-2.4-.9-.567-2.184-.85-3.85-.85h-5.2v-4.2h4.7c1.566 0 2.783-.267 3.65-.8.9-.533 1.35-1.283 1.35-2.25 0-.967-.534-1.733-1.6-2.3-1.067-.567-2.534-.85-4.4-.85-2.667 0-5.484.65-8.45 1.95l-1.6-4.6c3.5-1.633 7.033-2.45 10.6-2.45 2.266 0 4.3.317 6.1.95 1.8.6 3.2 1.467 4.2 2.6 1.033 1.1 1.55 2.367 1.55 3.8 0 1.3-.4 2.467-1.2 3.5-.8 1-1.9 1.783-3.3 2.35zm40.235 8.6v11.25h-5.85V48h-20.6v5.95h-5.8V42.7h1.25c1.7-.067 2.85-1.15 3.45-3.25.634-2.133 1.05-5.133 1.25-9l.35-9.15h22v21.4h3.95zm-20.6-11.8c-.133 3.067-.383 5.567-.75 7.5-.366 1.933-1.033 3.367-2 4.3h13.15V26.6h-10.25l-.15 4.3zM61.92 28.054c-.038-1.998-.074-3.886-.074-5.712 0-1.43-1.156-2.59-2.582-2.59-11.046 0-19.455-3.183-26.465-10.019a2.577 2.577 0 0 0-3.6 0c-7.01 6.836-15.418 10.02-26.463 10.02a2.586 2.586 0 0 0-2.582 2.59c0 1.826-.036 3.714-.074 5.712-.354 18.593-.84 44.056 30.073 54.802a2.575 2.575 0 0 0 1.691 0c30.915-10.746 30.43-36.21 30.076-54.803zM31 77.66C4.488 68.002 4.889 46.844 5.244 28.154c.022-1.122.042-2.21.057-3.275 10.344-.438 18.616-3.582 25.698-9.768 7.082 6.186 15.355 9.33 25.7 9.768.015 1.066.036 2.152.057 3.273.355 18.691.756 39.85-25.757 49.51z" fill="#fff"/><path d="M39.892 37.002L27.427 49.503l-5.32-5.335a2.578 2.578 0 0 0-3.651 0 2.596 2.596 0 0 0 0 3.663l7.145 7.167a2.571 2.571 0 0 0 1.826.758c.661 0 1.322-.253 1.826-.758l14.291-14.333a2.595 2.595 0 0 0 0-3.663 2.577 2.577 0 0 0-3.651 0zM93.325 63.3c1.267 0 2.383.275 3.35.825a5.621 5.621 0 0 1 2.25 2.25c.55.967.825 2.075.825 3.325 0 1.283-.3 2.425-.9 3.425-.6.983-1.442 1.75-2.525 2.3-1.083.55-2.317.825-3.7.825-2.317 0-4.108-.767-5.375-2.3-1.267-1.533-1.9-3.742-1.9-6.625 0-2.683.575-4.808 1.725-6.375 1.15-1.567 2.908-2.6 5.275-3.1l6.2-1.325.45 2.8-5.625 1.15c-1.617.333-2.825.9-3.625 1.7-.8.8-1.267 1.925-1.4 3.375a6.04 6.04 0 0 1 2.175-1.65c.85-.4 1.783-.6 2.8-.6zM92.7 73.725c1.15 0 2.075-.367 2.775-1.1.717-.75 1.075-1.7 1.075-2.85 0-1.15-.358-2.075-1.075-2.775-.7-.7-1.625-1.05-2.775-1.05-1.167 0-2.108.35-2.825 1.05-.717.7-1.075 1.625-1.075 2.775 0 1.167.358 2.117 1.075 2.85.733.733 1.675 1.1 2.825 1.1zm22.575-4.325c0 .217-.017.525-.05.925H104.75c.183.983.658 1.767 1.425 2.35.783.567 1.75.85 2.9.85 1.466 0 2.675-.483 3.625-1.45L114.375 74a5.648 5.648 0 0 1-2.275 1.625c-.917.367-1.95.55-3.1.55-1.467 0-2.759-.292-3.875-.875-1.117-.583-1.984-1.392-2.6-2.425-.6-1.05-.9-2.233-.9-3.55 0-1.3.291-2.467.875-3.5a6.358 6.358 0 0 1 2.475-2.45c1.05-.583 2.233-.875 3.55-.875 1.3 0 2.458.292 3.475.875a5.907 5.907 0 0 1 2.4 2.425c.583 1.033.875 2.233.875 3.6zm-6.75-4.4c-1 0-1.85.3-2.55.9-.684.583-1.1 1.367-1.25 2.35h7.575c-.134-.967-.542-1.75-1.225-2.35-.684-.6-1.534-.9-2.55-.9zm17.899 4.05c.833.233 1.475.617 1.925 1.15.466.517.7 1.142.7 1.875 0 .817-.275 1.542-.825 2.175-.55.617-1.309 1.1-2.275 1.45-.967.35-2.067.525-3.3.525-1.034 0-2.042-.117-3.025-.35-.984-.25-1.875-.6-2.675-1.05l.9-2.325a8.63 8.63 0 0 0 2.2.85c.816.2 1.633.3 2.45.3 1.05 0 1.866-.158 2.45-.475.6-.333.9-.783.9-1.35 0-.517-.234-.917-.7-1.2-.45-.283-1.092-.425-1.925-.425h-2.6v-2.1h2.35c.783 0 1.391-.133 1.825-.4.45-.267.675-.642.675-1.125s-.267-.867-.8-1.15c-.534-.283-1.267-.425-2.2-.425-1.334 0-2.742.325-4.225.975l-.8-2.3c1.75-.817 3.516-1.225 5.3-1.225 1.133 0 2.15.158 3.05.475.9.3 1.6.733 2.1 1.3.516.55.775 1.183.775 1.9 0 .65-.2 1.233-.6 1.75-.4.5-.95.892-1.65 1.175zm11.817 7.125c-1.35 0-2.566-.292-3.65-.875a6.499 6.499 0 0 1-2.55-2.425c-.6-1.05-.9-2.233-.9-3.55 0-1.317.3-2.492.9-3.525a6.499 6.499 0 0 1 2.55-2.425c1.084-.583 2.3-.875 3.65-.875 1.367 0 2.592.292 3.675.875a6.315 6.315 0 0 1 2.525 2.425c.617 1.033.925 2.208.925 3.525 0 1.317-.308 2.5-.925 3.55a6.315 6.315 0 0 1-2.525 2.425c-1.083.583-2.308.875-3.675.875zm0-2.675c1.15 0 2.1-.383 2.85-1.15.75-.767 1.125-1.775 1.125-3.025s-.375-2.258-1.125-3.025c-.75-.767-1.7-1.15-2.85-1.15-1.15 0-2.1.383-2.85 1.15-.733.767-1.1 1.775-1.1 3.025s.367 2.258 1.1 3.025c.75.767 1.7 1.15 2.85 1.15zm23.013-10.85V76h-3.1V65.3h-6.575V76h-3.125V62.65h12.8zm9.191-.15c1.967 0 3.467.475 4.5 1.425 1.05.933 1.575 2.35 1.575 4.25V76h-2.95v-1.625c-.383.583-.933 1.033-1.65 1.35-.7.3-1.55.45-2.55.45-1 0-1.875-.167-2.625-.5-.75-.35-1.333-.825-1.75-1.425a3.73 3.73 0 0 1-.6-2.075c0-1.2.442-2.158 1.325-2.875.9-.733 2.308-1.1 4.225-1.1h3.45V68c0-.933-.283-1.65-.85-2.15-.55-.5-1.375-.75-2.475-.75-.75 0-1.492.117-2.225.35-.717.233-1.325.558-1.825.975l-1.225-2.275c.7-.533 1.542-.942 2.525-1.225a11.234 11.234 0 0 1 3.125-.425zm-.425 11.4c.783 0 1.475-.175 2.075-.525a2.967 2.967 0 0 0 1.3-1.55v-1.55h-3.225c-1.8 0-2.7.592-2.7 1.775 0 .567.225 1.017.675 1.35.45.333 1.075.5 1.875.5zm16.442 2.275c-1.383 0-2.625-.292-3.725-.875s-1.958-1.392-2.575-2.425c-.617-1.05-.925-2.233-.925-3.55 0-1.317.308-2.492.925-3.525a6.499 6.499 0 0 1 2.55-2.425c1.1-.583 2.35-.875 3.75-.875 1.317 0 2.467.267 3.45.8 1 .533 1.75 1.3 2.25 2.3l-2.4 1.4c-.383-.617-.867-1.075-1.45-1.375a3.78 3.78 0 0 0-1.875-.475c-1.167 0-2.133.383-2.9 1.15-.767.75-1.15 1.758-1.15 3.025s.375 2.283 1.125 3.05c.767.75 1.742 1.125 2.925 1.125.683 0 1.308-.15 1.875-.45.583-.317 1.067-.783 1.45-1.4l2.4 1.4a5.468 5.468 0 0 1-2.275 2.325c-.983.533-2.125.8-3.425.8zm8.451-13.525h3.125v5.425h6.725V62.65h3.125V76h-3.125v-5.275h-6.725V76h-3.125V62.65zm23.114 13.525c-1.35 0-2.567-.292-3.65-.875a6.485 6.485 0 0 1-2.55-2.425c-.6-1.05-.9-2.233-.9-3.55 0-1.317.3-2.492.9-3.525a6.485 6.485 0 0 1 2.55-2.425c1.083-.583 2.3-.875 3.65-.875 1.366 0 2.591.292 3.675.875a6.321 6.321 0 0 1 2.525 2.425c.616 1.033.925 2.208.925 3.525 0 1.317-.309 2.5-.925 3.55a6.321 6.321 0 0 1-2.525 2.425c-1.084.583-2.309.875-3.675.875zm0-2.675c1.15 0 2.1-.383 2.85-1.15.75-.767 1.125-1.775 1.125-3.025s-.375-2.258-1.125-3.025c-.75-.767-1.7-1.15-2.85-1.15-1.15 0-2.1.383-2.85 1.15-.734.767-1.1 1.775-1.1 3.025s.366 2.258 1.1 3.025c.75.767 1.7 1.15 2.85 1.15zm16.287 2.675c-1.384 0-2.625-.292-3.725-.875s-1.959-1.392-2.575-2.425c-.617-1.05-.925-2.233-.925-3.55 0-1.317.308-2.492.925-3.525a6.485 6.485 0 0 1 2.55-2.425c1.1-.583 2.35-.875 3.75-.875 1.316 0 2.466.267 3.45.8 1 .533 1.75 1.3 2.25 2.3l-2.4 1.4c-.384-.617-.867-1.075-1.45-1.375a3.78 3.78 0 0 0-1.875-.475c-1.167 0-2.134.383-2.9 1.15-.767.75-1.15 1.758-1.15 3.025s.375 2.283 1.125 3.05c.766.75 1.741 1.125 2.925 1.125.683 0 1.308-.15 1.875-.45.583-.317 1.066-.783 1.45-1.4l2.4 1.4a5.468 5.468 0 0 1-2.275 2.325c-.984.533-2.125.8-3.425.8zM253.218 65.3h-4.675V76h-3.125V65.3h-4.7v-2.65h12.5v2.65zm2.267-2.65h3.125v8.8l7.375-8.8h2.85V76h-3.125v-8.8l-7.35 8.8h-2.875V62.65z" fill="#fff"/></svg>
